images/icons/read-cv.svg

<svg fill="none" height="24" viewBox="0 0 24 24" width="24" xmlns="http://www.w3.org/2000/svg" xmlns:xlink="http://www.w3.org/1999/xlink"><clipPath id="a"><path d="m0 0h24v24h-24z"/></clipPath><g clip-path="url(#a)"><path clip-rule="evenodd" d="m7.81661.0783257 13.47389 3.3594043c1.4019.34953 2.255 1.76934 1.9054 3.17123l-3.8414 15.40724c-.3496 1.4019-1.7694 2.255-3.1713 1.9055l-13.47382-3.3594c-1.40189-.3496-2.255-1.7694-1.905468-3.1713l3.841458-15.4072c.34953-1.401898 1.76934-2.255005 3.17124-1.9054743zm-.54126 4.3583943 12.51095 3.11932c.2835.0707.4561.35791.3854.6415l-.1659.66528c-.0707.28358-.3579.45616-.6415.38545l-12.51088-3.11932c-.28358-.0707-.45616-.35791-.38545-.6415l.16587-.66528c.07071-.28358.35792-.45616.64151-.38545zm11.55995 7.07398-12.51095-3.1193c-.28359-.0707-.5708.10187-.64151.38546l-.16587.66528c-.07071.28358.10187.57076.38546.64146l12.51087 3.1194c.2836.0707.5708-.1019.6415-.3855l.1659-.6653c.0707-.2836-.1019-.5708-.3854-.6415zm-13.49406.5851 5.74196 1.4317c.2836.0707.4562.3579.3855.6415l-.1659.6653c-.0707.2835-.3579.4561-.6415.3854l-5.74198-1.4316c-.28359-.0707-.45616-.3579-.38546-.6415l.16587-.6653c.07071-.2836.35792-.4562.64151-.3855z" fill="#fff" fill-rule="evenodd"/></g></svg>

<svg width="24" height="24" viewBox="0 0 24 24" fill="none" xmlns="http://www.w3.org/2000/svg">
<g clip-path="url(#clip0_1436_661)">
<path fill-rule="evenodd" clip-rule="evenodd" d="M7.81661 0.0783257L21.2905 3.43773C22.6924 3.78726 23.5455 5.20707 23.1959 6.60896L19.3545 22.0162C19.0049 23.4181 17.5851 24.2712 16.1832 23.9217L2.70938 20.5623C1.30749 20.2127 0.45438 18.7929 0.803912 17.391L4.64537 1.9838C4.9949 0.581902 6.41471 -0.271205 7.81661 0.0783257ZM7.27535 4.43672L19.7863 7.55604C20.0698 7.62674 20.2424 7.91395 20.1717 8.19754L20.0058 8.86282C19.9351 9.1464 19.6479 9.31898 19.3643 9.24827L6.85342 6.12895C6.56984 6.05825 6.39726 5.77104 6.46797 5.48745L6.63384 4.82217C6.70455 4.53859 6.99176 4.36601 7.27535 4.43672ZM18.8353 11.5107L6.32435 8.3914C6.04076 8.3207 5.75355 8.49327 5.68284 8.77686L5.51697 9.44214C5.44626 9.72572 5.61884 10.0129 5.90243 10.0836L18.4133 13.203C18.6969 13.2737 18.9841 13.1011 19.0548 12.8175L19.2207 12.1522C19.2914 11.8686 19.1188 11.5814 18.8353 11.5107ZM5.34124 12.0958L11.0832 13.5275C11.3668 13.5982 11.5394 13.8854 11.4687 14.169L11.3028 14.8343C11.2321 15.1178 10.9449 15.2904 10.6613 15.2197L4.91932 13.7881C4.63573 13.7174 4.46316 13.4302 4.53386 13.1466L4.69973 12.4813C4.77044 12.1977 5.05765 12.0251 5.34124 12.0958Z" fill="white"/>
</g>
<defs>
<clipPath id="clip0_1436_661">
<rect width="24" height="24" fill="white"/>
</clipPath>
</defs>
</svg>
